svgs/nintendo_switch_parental_control.svg

<svg width="192" height="192" viewBox="0 0 192 192" fill="none" xmlns="http://www.w3.org/2000/svg"><path d="M92.0419 58.85C102.494 58.85 110.967 50.377 110.967 39.925C110.967 29.473 102.494 21 92.0419 21C81.59 21 73.1169 29.473 73.1169 39.925C73.1169 50.377 81.59 58.85 92.0419 58.85Z" stroke="#000" stroke-width="10" stroke-miterlimit="6" stroke-linecap="round" stroke-linejoin="round"/><path d="M150 85.842H160.933C164.247 85.842 166.933 83.1557 166.933 79.842V75.905C166.933 72.5913 164.247 69.905 160.933 69.905H33.2759C29.9622 69.905 27.2759 72.5913 27.2759 75.905V79.842C27.2759 83.1557 29.9622 85.842 33.2759 85.842H64.6029C67.9166 85.842 70.6029 88.5283 70.6029 91.842V159.615C70.6029 162.945 73.3149 165.638 76.6449 165.615L108 165.395" stroke="#000" stroke-width="10" stroke-miterlimit="6" stroke-linecap="round" stroke-linejoin="round"/><path d="M92.0181 165.028V138.633" stroke="#000" stroke-width="10" stroke-miterlimit="6" stroke-linecap="round" stroke-linejoin="round"/><path d="M129.458 115.266C137.709 115.266 144.398 108.577 144.398 100.326C144.398 92.0748 137.709 85.386 129.458 85.386C121.207 85.386 114.518 92.0748 114.518 100.326C114.518 108.577 121.207 115.266 129.458 115.266Z" stroke="#000" stroke-width="8" stroke-miterlimit="6" stroke-linecap="round" stroke-linejoin="round"/><path d="M93.0139 122.696H165.724M118.91 123.194V172M141.321 123.194V172M119.409 152.577H140.325" stroke="#000" stroke-width="8" stroke-miterlimit="6" stroke-linecap="round" stroke-linejoin="round"/></svg>

<svg xmlns="http://www.w3.org/2000/svg" width="192" height="192" fill="none" viewBox="0 0 192 192"><path stroke="#000" stroke-linecap="round" stroke-linejoin="round" stroke-miterlimit="6" stroke-width="10" d="M92.042 58.85c10.452 0 18.925-8.473 18.925-18.925S102.494 21 92.042 21s-18.925 8.473-18.925 18.925S81.59 58.85 92.042 58.85M150 85.842h10.933a6 6 0 0 0 6-6v-3.937a6 6 0 0 0-6-6H33.276a6 6 0 0 0-6 6v3.937a6 6 0 0 0 6 6h31.327a6 6 0 0 1 6 6v67.773a6 6 0 0 0 6.042 6l31.355-.22m-15.982-.367v-26.395"/><path stroke="#000" stroke-linecap="round" stroke-linejoin="round" stroke-miterlimit="6" stroke-width="8" d="M129.458 115.266c8.251 0 14.94-6.689 14.94-14.94s-6.689-14.94-14.94-14.94-14.94 6.689-14.94 14.94 6.689 14.94 14.94 14.94m-36.444 7.43h72.71m-46.814.498V172m22.411-48.806V172m-21.912-19.423h20.916"/></svg>
